!!!COM: Palestrina, Giovanni Perluigi da
!!!OPR: Missa Nigra sum
!!!OMD: Credo
!!!OTL: First Section
**kern	**kern	**kern	**kern	**kern
*Ibass	*Itenor	*Itenor	*Icalto	*Icant
!Bassus	!Tenor 2	!Tenor 1	!Altus	!Cantus
*clefF4	*clefGv2	*clefGv2	*clefG2	*clefG2
*k[b-]	*k[b-]	*k[b-]	*k[b-]	*k[b-]
*D:aeo	*D:aeo	*D:aeo	*D:aeo	*D:aeo
*M4/2	*M4/2	*M4/2	*M4/2	*M4/2
=1	=1	=1	=1	=1
0r	1r	0r	1g	1r
.	2r	.	2g	[1dd
.	2G	.	2g	.
=2	=2	=2	=2	=2
0r	2G	2r	2b-	1dd]
.	2G	2d	2b-	.
.	2B-	2d	2.f	1dd
.	2B-	2d	.	.
.	.	.	4g	.
=3	=3	=3	=3	=3
0r	2.F	2f	2.a	1.cc
.	.	2f	.	.
.	4G	.	8g	.
.	.	.	8f	.
.	4A	4c	2.e	.
.	4B-	4d	.	.
.	2c	4e	.	2g
.	.	4c	4f	.
=4	=4	=4	=4	=4
0r	2G	2d	2.g	2b-
.	2g	2e-	.	2cc
.	.	.	4a	.
.	2g	1d	2b-	1dd
.	2f#	.	2a	.
=5	=5	=5	=5	=5
1r	1g	1G	1b-	2r
.	.	.	.	2dd
[1d	2f	1r	1a	2dd
.	2a	.	.	2dd
=6	=6	=6	=6	=6
1d]	2a	0r	2r	1ff
.	2a	.	2a	.
1d	1f	.	2a	2dd
.	.	.	2a	[2ff
=7	=7	=7	=7	=7
1.c	[0g	0r	1cc	2ff]
.	.	.	.	4ee-
.	.	.	.	4dd
.	.	.	2g	2ee-
2G	.	.	[2b-	[2dd
=8	=8	=8	=8	=8
2B-	1g]	0r	4b-]	2dd]
.	.	.	4a	.
2c	.	.	1g	4cc
.	.	.	.	4b-
1d	1r	.	.	1a
.	.	.	2f#	.
=9	=9	=9	=9	=9
1G	0r	2.d	1g	1b-
.	.	4d	.	.
2.G	.	2d	2.g	2.b-
.	.	2d	.	.
4G	.	.	4g	4b-
=10	=10	=10	=10	=10
2G	2.d	1G	2g	2b-
2G	.	.	2g	2b-
.	4d	.	.	.
[1D	2d	2A	2f	2a
.	2d	2A	2a	2ff
=11	=11	=11	=11	=11
1D]	1A	0d	2f	2dd
.	.	.	1a	1ff
2F	1r	.	.	.
2G	.	.	4g	4ee
.	.	.	4f	4dd
=12	=12	=12	=12	=12
1A	1a	2r	1e	1cc#
.	.	2.a	.	.
2.D	2f	.	4d	1dd
.	.	4g	4e	.
.	[2a	2f	4f	.
4E	.	.	4g	.
=13	=13	=13	=13	=13
2F	2a]	2e	2a	0r
2G	4g	1d	2b-	.
.	4f	.	.	.
1A	2.e	.	1a	.
.	.	2c	.	.
.	4f	.	.	.
=14	=14	=14	=14	=14
1G	1g	2B-	2r	2r
.	.	1G	2b-	2dd
1r	1d	.	2g	2b-
.	.	2G	[2b-	[2dd
=15	=15	=15	=15	=15
0r	0r	2B-	2b-]	2dd]
.	.	2c	4a	4cc
.	.	.	4g	4b-
.	.	2d	2f#	2a
.	.	2e-	2g	2g
=16	=16	=16	=16	=16
1r	1r	1d	2g	2a
.	.	.	2f#	2a
2.G	2.d	1r	1g	[1b
4G	4d	.	.	.
=17	=17	=17	=17	=17
2G	2d	0r	2.g	1b]
2G	2d	.	.	.
.	.	.	4g	.
2c	2e	.	2g	1r
2A	2c	.	2a	.
=18	=18	=18	=18	=18
1G	2d	0r	2b-	2.dd
.	1g	.	2g	.
.	.	.	.	4dd
1d	.	.	2a	2dd
.	2f#	.	2b	2dd
=19	=19	=19	=19	=19
1c	0g	0r	1cc	2ee
.	.	.	.	2cc
1G	.	.	2.b-	2dd
.	.	.	.	2ee
.	.	.	8a	.
.	.	.	8g	.
=20	=20	=20	=20	=20
0D	0a	2.d	2f	2.ff
.	.	.	4d	.
.	.	4d	4e	4ee
.	.	2d	4f	4dd
.	.	.	4g	4cc
.	.	2d	4a	2dd
.	.	.	4f	.
=21	=21	=21	=21	=21
0r	0r	2e	2g	2.cc
.	.	2c	1a	.
.	.	.	.	8b-
.	.	.	.	8a
.	.	2d	.	1b-
.	.	2e	2g	.
=22	=22	=22	=22	=22
1r	2r	1f	1a	1a
.	2.d	.	.	.
2.G	.	[1g	1r	2.b
.	4d	.	.	.
.	2d	.	.	.
4G	.	.	.	4b
=23	=23	=23	=23	=23
2G	2e	2g]	0r	2b
2A	2c	4f	.	1cc
.	.	4e	.	.
2F	2d	2a	.	.
2G	2e	2g	.	2b-
=24	=24	=24	=24	=24
2A	4f	1f	2r	2a
.	4e	.	.	.
2.B-	4d	.	2.f	2dd
.	4c	.	.	.
.	2d	1r	.	2.b-
4A	.	.	4f	.
[2G	2B-	.	2g	.
.	.	.	.	4cc
=25	=25	=25	=25	=25
2G]	1A	2r	1a	0dd
2F#	.	2.d	.	.
1G	2r	.	1b	.
.	.	4d	.	.
.	[2G	2d	.	.
=26	=26	=26	=26	=26
2.C	2G]	2e	2.cc	0r
.	2A	2c	.	.
4C	.	.	4cc	.
2G	2.B-	2d	2b-	.
2G	.	2e	2b-	.
.	4c	.	.	.
=27	=27	=27	=27	=27
1D	1d	2.f	1a	2r
.	.	.	.	1dd
.	.	4f	.	.
1r	1A	1e	2r	.
.	.	.	[2a	2cc#
=28	=28	=28	=28	=28
0r	2r	1d	2a]	2dd
.	1d	.	2f	2ff
.	.	1r	1g	1ee
.	2c#	.	.	.
=29	=29	=29	=29	=29
0r	2d	0r	2b-	2dd
.	2f	.	2.a	4cc
.	.	.	.	4b-
.	1e	.	.	4cc
.	.	.	4g	4b-
.	.	.	[2g	4a
.	.	.	.	4g
=30	=30	=30	=30	=30
2r	2d	0r	2g]	[0a
1D	1d	.	4f	.
.	.	.	4e	.
.	.	.	2f	.
2C#	2e	.	2e	.
=31	=31	=31	=31	=31
2D	2f	2r	1d	1a]
2F	2F	1d	.	.
1E	1G	.	2r	1r
.	.	2c#	2g	.
=32	=32	=32	=32	=32
4D	1.A	1d	2f	2r
4E	.	.	.	.
4F	.	.	1a	1dd
4G	.	.	.	.
2.A	.	2f	.	.
.	2A	[2e	2a	2cc#
4G	.	.	.	.
=33	=33	=33	=33	=33
2F	1A	2e]	1a	2dd
2D	.	1d	.	2ff
1A	1r	.	[1a	1ee
.	.	2c#	.	.
=34	=34	=34	=34	=34
1D	1r	1d	2a]	4ff
.	.	.	.	4ee
.	.	.	2f	4dd
.	.	.	.	4cc
1r	2r	4G	1g	2b-
.	.	4A	.	.
.	2g	4B-	.	2b-
.	.	4c	.	.
=35	=35	=35	=35	=35
1r	2f	4d	0r	2a
.	.	4e	.	.
.	2d	4f	.	2dd
.	.	4g	.	.
2r	1f	1a	.	2cc
2d	.	.	.	2a
=36	=36	=36	=36	=36
2c	1e	1r	2r	1cc
2A	.	.	2a	.
2B-	[1d	2r	2f	1b-
2G	.	2g	2g	.
=37	=37	=37	=37	=37
1D	1d]	2f	1a	2a
.	.	2d	.	2dd
1r	2r	1f	[1a	2cc
.	2d	.	.	2a
=38	=38	=38	=38	=38
0r	2c	1e	1a]	1cc
.	2A	.	.	.
.	2B-	1d	2r	1b-
.	2G	.	2g	.
=39	=39	=39	=39	=39
2r	0d	1r	2f	2a
2G	.	.	2d	2b-
2F	.	2r	2.f	2a
2D	.	2B-	.	2f
.	.	.	8e	.
.	.	.	8d	.
=40	=40	=40	=40	=40
1F	1r	2A	2c	2a
.	.	2F	1d	2a
1E	2r	2G	.	1g
.	[2g	2G	2c#	.
=41	=41	=41	=41	=41
1D	2g]	2A	1d	2r
.	2f	2B-	.	1dd
1r	1e	1c	1r	.
.	.	.	.	2cc
=42	=42	=42	=42	=42
0r	2d	1G	2r	1b-
.	2d	.	1g	.
.	2c	1r	.	2a
.	2d	.	2f	2a
=43	=43	=43	=43	=43
2r	1G	0r	1b-	2g
1d	.	.	.	2f
.	2A	.	[1a	1e
2c	2e	.	.	.
=44	=44	=44	=44	=44
1B-	2f	2r	2a]	1d
.	2g	2d	2g	.
2A	1a	2d	2f	1r
2A	.	2c	[2e	.
=45	=45	=45	=45	=45
2G	1d	2B-	4e]	0r
.	.	.	4d	.
2F	.	2A	1d	.
1E	2r	1G	.	.
.	[2g	.	2c#	.
=46	=46	=46	=46	=46
[0D	2g]	2.A	2d	1r
.	2f#	.	1a	.
.	.	8B-	.	.
.	.	8c	.	.
.	1f#	1d	.	[1dd
.	.	.	2a	.
=47	=47	=47	=47	=47
1D]	1f#	0r	2a	2dd]
.	.	.	2a	2dd
1r	1g	.	1b-	2dd
.	.	.	.	2dd
=48	=48	=48	=48	=48
0r	1c	0r	2g	1ee-
.	.	.	1cc	.
.	[1g	.	.	1dd
.	.	.	2b-	.
=49	=49	=49	=49	=49
0r	2g]	0r	2g	1.dd
.	2f	.	2a	.
.	2d	.	2b-	.
.	2e	.	2g	2cc
=50	=50	=50	=50	=50
0r	2f	1r	2.f	2a
.	2d	.	.	2b-
.	.	.	4g	.
.	2.c	[1A	4a	2cc
.	.	.	4b-	.
.	.	.	[2cc	[2a
.	4d	.	.	.
=51	=51	=51	=51	=51
0r	2.e	2A]	4cc]	2a]
.	.	.	4b-	.
.	.	2A	4a	2.cc
.	4d	.	4g	.
.	2e	2A	4a	.
.	.	.	4g	4b-
.	[2f	2A	4f	4a
.	.	.	4e	4g
=52	=52	=52	=52	=52
0r	4f]	2B-	2.d	2f
.	4e	.	.	.
.	2d	2B-	.	2g
.	.	.	4e	.
.	2.c	2.A	2f	[1a
.	.	.	[2e	.
.	4d	4B-	.	.
=53	=53	=53	=53	=53
0r	2e	2c	2e]	1a]
.	2f	2d	1d	.
.	1e	1A	.	2r
.	.	.	2c#	[2a
=54	=54	=54	=54	=54
1.D	2.f	2r	1d	2a]
.	.	1d	.	2a
.	4g	.	.	.
.	2a	.	2.f	[1a
2D	2A	2d	.	.
.	.	.	4f	.
=55	=55	=55	=55	=55
2D	1r	2d	2f	2a]
2D	.	2d	2f	2b-
[1E-	2r	2.G	[1g	2cc
.	[2G	.	.	[2b-
.	.	4A	.	.
=56	=56	=56	=56	=56
1E-]	2G]	2B-	1g]	2b-]
.	2G	2c	.	4a
.	.	.	.	4g
2.D	2B-	1d	2r	4f
.	.	.	.	4g
.	2A	.	[2f	[2a
4E	.	.	.	.
=57	=57	=57	=57	=57
2F	2A	2c	2f]	2a]
2G	1d	2B-	2d	1g
1D	.	1A	2.a	.
.	2d	.	.	2f#
.	.	.	8g	.
.	.	.	8a	.
=58	=58	=58	=58	=58
0G	1d	2r	2b-	1g
.	.	2G	2g	.
.	1r	1g	1b-	2r
.	.	.	.	2g
=59	=59	=59	=59	=59
0r	1d	2g	2b-	1dd
.	.	2f#	2a	.
.	1g	2g	2b-	2dd
.	.	2e-	2g	2cc
=60	=60	=60	=60	=60
2r	2g	1d	1a	2.dd
2D	2f#	.	.	.
.	.	.	.	4cc
1d	2.g	1G	1r	2b-
.	.	.	.	2b-
.	4f	.	.	.
=61	=61	=61	=61	=61
2d	2e	1A	2r	1a
2c#	2e	.	2e	.
2.d	[1f	1r	1a	2r
.	.	.	.	2a
4c	.	.	.	.
=62	=62	=62	=62	=62
2B-	2f]	1r	2a	1dd
2B-	4e	.	2g	.
.	4d	.	.	.
1A	1e	2r	2a	2dd
.	.	2e	2a	2cc#
=63	=63	=63	=63	=63
1G	0r	1g	1b-	2dd
.	.	.	.	2dd
1r	.	2g	1a	4ee
.	.	.	.	4dd
.	.	2f	.	2ff
=64	=64	=64	=64	=64
1r	1G	2g	2.b-	4ee-
.	.	.	.	4dd
.	.	2g	.	2.dd
.	.	.	4a	.
1C	1c	1e-	1g	.
.	.	.	.	4cc
.	.	.	.	2cc
=65	=65	=65	=65	=65
1G	2c	1d	2r	2.dd
.	2B-	.	2d	.
.	.	.	.	4cc
2G	2G	1r	2e	2b-
2F	2A	.	2f	2a
=66	=66	=66	=66	=66
2G	2.B-	0r	4e-	0g
.	.	.	4d	.
2G	.	.	1d	.
.	4A	.	.	.
1E-	1G	.	.	.
.	.	.	2c	.
=67	=67	=67	=67	=67
1D	1A	1.f	0d	0r
[1B-	1r	.	.	.
.	.	2e-	.	.
=68	=68	=68	=68	=68
2B-]	1.G	2d	1.b-	0r
2A	.	2c	.	.
2G	.	2B-	.	.
2F	2A	[2c	2a	.
=69	=69	=69	=69	=69
2E-	2B-	4c]	2g	0r
.	.	4B-	.	.
2D	2B-	1B-	2f	.
1C	1c	.	1e-	.
.	.	2A	.	.
=70	=70	=70	=70	=70
1BB-	1F	0B-	0d	1.ff
[1BB-	[1f	.	.	.
.	.	.	.	2ee-
=71	=71	=71	=71	=71
2BB-]	2f]	1.f	1.d	2dd
2C	2e-	.	.	2cc
[1D	2d	.	.	2b-
.	2c	2e-	2e-	[2a
=72	=72	=72	=72	=72
0D]	1B-	2d	2f	2a]
.	.	2d	2g	1g
.	1A	1d	1a	.
.	.	.	.	2f#
=73	=73	=73	=73	=73
1G	1G	1d	1b	1g
1r	1r	1r	1r	1r
=74	=74	=74	=74	=74
0C	0g	0c	0cc	0ee-
=75	=75	=75	=75	=75
1G	1g	1.d	1b-	1dd
1G	1d	.	1g	1b-
.	.	2B-	.	.
=76	=76	=76	=76	=76
1F	1f	1A	2a	1cc
.	.	.	1cc	.
1BB-	1f	1B-	.	1dd
.	.	.	[2b-	.
=77	=77	=77	=77	=77
[0F	1f	1c	2b-]	0cc
.	.	.	4a	.
.	.	.	4g	.
.	2r	2r	1a	.
.	2f	2c	.	.
=78	=78	=78	=78	=78
1F]	1.a	1.f	2r	2r
.	.	.	2f	2cc
1r	.	.	[1a	[1ff
.	2f	2d	.	.
=79	=79	=79	=79	=79
0r	0f	1d	2a]	2ff]
.	.	.	2a	2dd
.	.	2.B-	2b-	1dd
.	.	.	[2b-	.
.	.	8c	.	.
.	.	8d	.	.
=80	=80	=80	=80	=80
0r	0g	0e-	2b-]	1b-
.	.	.	2a	.
.	.	.	1g	1cc
=81	=81	=81	=81	=81
2r	2a	1d	2f#	2dd
1D	1f#	.	1a	1dd
.	.	2r	.	.
2D	2f#	[2d	2a	2dd
=82	=82	=82	=82	=82
1G	1g	2d]	1b-	1dd
.	.	2d	.	.
1D	2f	1d	2a	1dd
.	[2a	.	[2f	.
=83	=83	=83	=83	=83
1F	4a]	1A	2f]	1cc
.	4g	.	.	.
.	4f	.	2a	.
.	4e	.	.	.
1G	2d	1r	4g	1b-
.	.	.	4f	.
.	[2e	.	4e	.
.	.	.	4d	.
=84	=84	=84	=84	=84
0A	2e]	1r	2c#	0a
.	1d	.	2d	.
.	.	2r	[1e	.
.	4c	[2e	.	.
.	4B	.	.	.
=85	=85	=85	=85	=85
1A	2c#	2e]	1e]	1ee
.	2c#	2.a	.	.
[1d	1d	.	1r	[1ff
.	.	4g	.	.
.	.	4f	.	.
.	.	4e	.	.
=86	=86	=86	=86	=86
2d]	0r	2d	1a	2ff]
2c	.	2e	.	2ee
2B-	.	1f	[1b-	2dd
2A	.	.	.	2cc
=87	=87	=87	=87	=87
0G	0r	2.g	2b-]	0b-
.	.	.	2a	.
.	.	4f	.	.
.	.	2e	2g	.
.	.	[2d	2f	.
=88	=88	=88	=88	=88
0A	1r	2d]	0e	0a
.	.	4c	.	.
.	.	4B	.	.
.	1e	1c#	.	.
=89	=89	=89	=89	=89
2.D	1.f	[0d	1r	0a
4E	.	.	.	.
1F	.	.	1a	.
.	2e	.	.	.
=90	=90	=90	=90	=90
0G	2d	1d_	2b-	0dd
.	2c	.	2a	.
.	1B-	1d_	2g	.
.	.	.	2g	.
=91	=91	=91	=91	=91
0D	0A	0d]	0f#	0dd
*-	*-	*-	*-	*-
!!!CDT: 1525/^1526/-1594/2/2
!!!OCY: Italia
!!!AGN: Mass (Parody)
!!!AST: renaissance, vocal
!!!ASW: Motet 1532 (Lhéritier)
!!!PWK: Masses, Book 5
!!!RNB: Cadence finals: G,A
!!!YOR: Le Opere Complete, v. 15, p. 89
!!!YOO: Rome, Italy: Fratelli Scalera
!!!END: 1992//
!!!EED: John Miller
!!!YEC: Copyright 2000, John Miller
!!!YEN: United States of America
!!!YEM: Rights to all derivative electronic formats reserved.
!!!YEM: Refer to licensing agreement for further details.
!!!YEM: This file must be accompanied by the licensing agreement.
!!!YEM: A copy of the licensing agreement may be found at http://www.music-cog.ohio-state.edu/HumdrumDatabases/Palestrina/license.txt
!!!EMD: converted to Humdrum by Bret Aarden
